X:1
T:Title
T:Theme from Disney's "Up!"
C:Composer
%%score 1 2
L:1/8
Q:1/4=175
M:3/4
K:F
V:1 bass nm="Euphonium" snm="Euph."
V:2 bass nm="Euphonium" snm="Euph."
V:1
 z6 | z6 | z6 | z2 z!f! F, A,F, | (E,6 | E,2) z F, A,E, | D,2 z D, F,D, | C,4 z C, | A, z G,3 D, | %9
 A,2 G, z F,2 | D,6 | z2 z F, G,F, | (E,6 | E,2) z E, G,E, |!>(! C,2 z C, E,C,!>)! | B,,6 | %16
 z2 A,2 B,2 | C3 D E2 | z2 C2 D2 | E6 |!mp! A,6 | A,6 | D,2 z F, A,D | A,6 | A,6 | A,,2 _C, z D,2 | %26
 A,6 | D,2 z F, G,F, | G,6 | G,6 | E,6 | B,,C, D,E, G,B, | C6 | G,4 z A, | B,2 A, z2 G, | %35
 D2 A,2 G,2 | A,6 | F,4 z F, | A,2 G, z z F, | A,2 _G, z D,2 | _C,2 A,3 A, | G,2 D,2 F,2 | G,6 | %43
 D,6 |!f! E,2 G, z z D, | E,2 B,,2 _C,2 | C,6 |!f! z D, E,F, G,/A,/F, | (E,6 | E,2) z F, A,E, | %50
 D,2 z D, F,A, | C4 z F, | A,2 G,3 D, | A,2 G,2 F,2 | D,6 | z2 z F, G,F, | E,2 G, z z D, | %57
 E,2 B,,2 _C,2 |!p! F,_G, =G,_A, =A,B, | _C=C _D=D _E=E |!mf! F6 | E6 | D6 | C6 | _C6 | %65
 A,2 _C z D2 | F,6 | D,6 | E,2 G,4 | D,2 G,4 | C,2 E,4 | B,,2 D,4 | (F,6 | F,6) | F,,6 |] %75
V:2
!mf! F,,2 A,,2 A,,2 | C,,2 A,,2 A,,2 | D,,2 A,,2 A,,2 | C,2 D,2 E,2 |!mp! F,6 | E,6 | D,6 | C,6 | %8
 A, z G,3 D, | A,2 G, z F,2 | _C,2 F,2 F,2 | D,2 F,2 F,2 | C,6 | _C,6 | B,,6 | G,,6 | z6 | z6 | %18
 z6 |!p!!<(! C,3!<)!!f! F, A,F, | (E,6 | E,2) z F, A,E, | D,2 z F, A,D, | E,4 z D, | F,2 E, z2 D, | %25
 A,,2 _C, z D,2 |{/_E,=E,} F,6 | D,2 z F, G,F, | (E,6 | E,2) z E, G,E, | C,2 z (C, E,C,) | B,,6 | %32
 z2!p! (E,F, E,F,) | z2 (E,F, E,F,) | z6 | z6 | C,2 F,2 F,2 | C,2 F,2 F,2 | C,2 F,2 F,2 | %39
 z2 (G,,A,, G,,A,,) | _C,=C, _D,=D, _E,=E, | F,_G, =G,_A, =A,B, |!f! B,A, _A,G, _G,F, | %43
 E,_E, D,_D, C,!mp!_C, |!f! E,2 G, z z D, | E,2 B,,2 _C,2 | C,6 | C,6 | F,2 A,4 | C,2 A,4 | %50
 D,2 A,4 | C4 z F, | A,2 G,3 D, | A,2 G,2 F,2 | F,E, F,C, D,E, | F,E, F, z z2 | (E,6 | E,6) | %58
 (C,6 | C,6) |!f! F,6 | z2 z F, A,E, | D,2 z F, A,D, | E,4 z D, | F,2 E, z2 D, | A,2 _C, z D,2 | %66
 F,6!f! | z3!f! F, G,F, | (E,6 | E,2) z E, G,E, | C,2 z C, E,C, | B,,6 | F,6 | F,6 | F,,6 |] %75

